X: 26
T: No_33_Opening_Song_of_the_Ghost_Dance.krn
N: Derived from No_33_Opening_Song_of_the_Ghost_Dance.krn
%%abc-version 2.0
%%abcx-abcm2ps-target-version 5.9.1 (29 Sep 2008)
%%abc-creator hum2abc beta
%%abcx-conversion-date 2019/03/15 08:27:55
%%humdrum-veritas 1724783402
%%humdrum-veritas-data 2437715698
%%linebreak <none>
%%barnumbers 0
L: 1/8
M: 3/4
K: Db clef=bass
[K:clef=bass][M:3/4]D/D3/D2B,D [I:setbarnb 2]| 
[M:2/4]A,A, A, z | 
[M:3/4]D/D3/D2B,D | 
[M:2/4]A,A, A, z | 
[M:3/4]DA, A,A, F,B, | 
[M:2/4]A,2A,/F,3/ | 
[M:3/4]F,2F,2F, z | 
B,A, A,A, F,B, | 
[M:2/4]A,2A,/F,3/ | 
[M:3/4]F,2F,2F, z | 
[M:7/8]DB,B,B,DB,A,/A,/ | 
[M:3/4]A,2A,2A, z | 
[M:7/8]DB,B,B,DB,A,/A,/ | 
[M:3/4]A,2A,2A, z | 
B,A, A,A, F,A, | 
[M:2/4]A,A, F,F, | 
[M:3/4]F,2F,2F, z | 
B,A, A,A, F,A, | 
[M:2/4]A,A, F,F, | 
[M:3/4]F,2F,2F, z |]  



